miniprogram/assets/figma/membership-tag.svg

<svg xmlns="http://www.w3.org/2000/svg" width="14" height="14" viewBox="0 0 14 14" fill="none">
    <g clip-path="url(#clip0_206_488)">
        <path fill-rule="evenodd" clip-rule="evenodd" d="M11.7675 0.747656C11.9893 0.765571 12.1975 0.804564 12.3944 0.904743C12.6966 1.05843 12.9422 1.30388 13.0962 1.60586C13.1966 1.8027 13.2358 2.0109 13.2539 2.23266C13.2713 2.4453 13.2713 2.70561 13.2713 3.0175L13.2713 5.97604C13.2714 6.42539 13.2715 6.72418 13.2027 7.01038C13.1419 7.26348 13.0416 7.50543 12.9055 7.72733C12.7517 7.97825 12.5403 8.18939 12.2223 8.5069L9.37946 11.3472C9.3217 11.4049 9.29283 11.4337 9.25954 11.4445C9.23025 11.4541 9.19871 11.454 9.16943 11.4445C9.13614 11.4337 9.10728 11.4048 9.04955 11.3471L2.65297 4.95054C2.5952 4.89276 2.56631 4.86387 2.55549 4.83056C2.54598 4.80126 2.54598 4.7697 2.55551 4.74041C2.56635 4.7071 2.59525 4.67823 2.65305 4.62048L5.49555 1.78053C5.81255 1.46368 6.02334 1.25299 6.27371 1.09957C6.49513 0.963893 6.7365 0.863846 6.98898 0.803089C7.27446 0.73439 7.5725 0.734172 8.02071 0.733844L10.9827 0.731034C11.2945 0.730732 11.5548 0.730479 11.7675 0.747656ZM9.7713 5.25008C9.20751 5.25008 8.75047 4.79304 8.75047 4.22925C8.75047 3.66546 9.20751 3.20841 9.7713 3.20841C10.3351 3.20841 10.7921 3.66546 10.7921 4.22925C10.7921 4.79304 10.3351 5.25008 9.7713 5.25008Z" fill="#AA5200"/>
        <path d="M2.03691 5.57191C1.97862 5.51362 1.94948 5.48448 1.91562 5.47373C1.88608 5.46435 1.85359 5.46471 1.82427 5.47474C1.79066 5.48624 1.76252 5.51565 1.70625 5.57448C1.57989 5.70656 1.46772 5.82872 1.36986 5.94388C1.13111 6.22486 0.952013 6.49283 0.851183 6.80267C0.689172 7.30051 0.688923 7.83686 0.850472 8.33486C0.951014 8.64479 1.12986 8.91292 1.36835 9.19413C1.60089 9.4683 1.91444 9.78215 2.3071 10.1752L3.82134 11.6909C4.21404 12.084 4.52761 12.3978 4.80158 12.6306C5.08257 12.8694 5.35055 13.0485 5.6604 13.1494C6.15826 13.3114 6.69463 13.3116 7.19263 13.1501C7.50257 13.0495 7.77072 12.8707 8.05193 12.6321C8.16807 12.5336 8.29132 12.4206 8.4247 12.2932C8.48361 12.2369 8.51306 12.2087 8.52458 12.1751C8.53463 12.1458 8.535 12.1133 8.52562 12.0837C8.51487 12.0499 8.48571 12.0207 8.42738 11.9624L2.03691 5.57191Z" fill="#AA5200"/>
    </g>
    <defs>
        <clipPath id="clip0_206_488">
            <rect width="14" height="14" fill="white"/>
        </clipPath>
    </defs>
</svg>

<svg xmlns="http://www.w3.org/2000/svg" width="14" height="14" fill="none" viewBox="0 0 14 14"><g fill="#aa5200" clip-path="url(#a)"><path fill-rule="evenodd" d="M11.768.748c.221.018.43.057.626.157a1.6 1.6 0 0 1 .702.7c.1.198.14.406.158.628.017.212.017.473.017.785v2.958c0 .45 0 .748-.068 1.034a2.5 2.5 0 0 1-.297.717c-.154.251-.366.462-.684.78l-2.843 2.84c-.057.058-.086.087-.12.098q-.044.014-.09 0c-.033-.011-.062-.04-.12-.098L2.654 4.951c-.058-.058-.087-.087-.098-.12a.15.15 0 0 1 0-.09c.011-.034.04-.063.098-.12l2.843-2.84c.317-.317.527-.528.778-.681A2.5 2.5 0 0 1 6.99.803c.285-.069.583-.069 1.032-.07l2.962-.002c.311 0 .572 0 .784.017M9.77 5.25a1.02 1.02 0 1 1 0-2.042 1.02 1.02 0 0 1 0 2.042" clip-rule="evenodd"/><path d="M2.037 5.572c-.058-.058-.088-.088-.121-.098a.15.15 0 0 0-.092 0c-.033.012-.061.042-.118.1a9 9 0 0 0-.336.37c-.239.28-.418.549-.519.859a2.48 2.48 0 0 0 0 1.532c.1.31.279.578.517.86.233.273.546.587.94.98l1.513 1.516c.393.393.707.707.98.94.282.238.55.418.86.518a2.48 2.48 0 0 0 1.532.001c.31-.1.578-.28.859-.518q.174-.147.373-.339c.059-.056.088-.084.1-.118q.015-.046 0-.091c-.01-.034-.04-.063-.098-.122z"/></g><defs><clipPath id="a"><path fill="#fff" d="M0 0h14v14H0z"/></clipPath></defs></svg>
